!!!COM: Palestrina, Giovanni Perluigi da
!!!OPR: Missa Hodie Christus Natus Est
!!!OMD: Sanctus
!!!OTL: H.coda
**kern	**kern	**kern	**kern	**kern	**kern	**kern	**kern
*Ibass	*Itenor	*Itenor	*Icalto	*Ibass	*Icalto	*Icant	*Icant
!Bassus	!Tenor 2	!Tenor 1	!Altus	!Bassus	!Altus	!Cantus 2	!Cantus 1
*clefF4	*clefGv2	*clefGv2	*clefG2	*clefF4	*clefG2	*clefG2	*clefG2
*k[]	*k[]	*k[]	*k[]	*k[]	*k[]	*k[]	*k[]
*G:mix	*G:mix	*G:mix	*G:mix	*G:mix	*G:mix	*G:mix	*G:mix
*M3/2	*M3/2	*M3/2	*M3/2	*M3/2	*M3/2	*M3/2	*M3/2
=79	=79	=79	=79	=79	=79	=79	=79
2r	2r	2r	2r	1.C	1.g	1.ee	1.cc
2r	2r	2r	2r	.	.	.	.
2C	2e	2c	2g	.	.	.	.
=80	=80	=80	=80	=80	=80	=80	=80
1F	1f	1c	1a	1r	1r	1r	1r
2C	2e	2c	2g	2r	2r	2r	2r
=81	=81	=81	=81	=81	=81	=81	=81
1G	1d	1B	1g	2r	2r	2r	2r
.	.	.	.	2r	2r	2r	2r
2G	2d	2B	2g	2G	2g	2gg	2dd
=82	=82	=82	=82	=82	=82	=82	=82
2C	2e	2c	2g	1c	1g	1ee	1cc
2C	2e	2c	2g	.	.	.	.
2r	2r	2r	2r	2G	2g	2dd	2b
=83	=83	=83	=83	=83	=83	=83	=83
2r	2r	2r	2r	1d	1f#	1dd	1a
2r	2r	2r	2r	.	.	.	.
2D	2d	2d	2a	2d	2f#	2dd	2a
=84	=84	=84	=84	=84	=84	=84	=84
1G	1d	1B	1g	2G	2g	2dd	2b
.	.	.	.	2G	2g	2dd	2b
2D	2d	2A	2f#	2r	2r	2r	2r
=85	=85	=85	=85	=85	=85	=85	=85
1G	1d	1B	1g	1r	1r	1r	1r
2G	2e	2B	2g	2r	2r	2r	2r
=86	=86	=86	=86	=86	=86	=86	=86
2.F	2.f	2c	1.a	1r	1r	1r	1r
.	.	2f	.	.	.	.	.
4G	8e	.	.	.	.	.	.
.	8d	.	.	.	.	.	.
2A	2c	2e	.	2r	2r	2r	2r
=87	=87	=87	=87	=87	=87	=87	=87
2B-	2d	1d	2g	2r	2r	2r	2r
1A	1e	.	1a	2r	2r	2r	2r
.	.	2c#	.	2A	2a	2a	2ee
=88	=88	=88	=88	=88	=88	=88	=88
1D	2d	1d	1a	1d	2f	1a	1ff
.	2r	.	.	.	2d	.	.
2r	2r	2r	2r	2c#	2e	2a	2ee
=89	=89	=89	=89	=89	=89	=89	=89
1r	1r	1r	1r	1d	1f#	1a	1dd
2r	2r	2r	2r	2d	2f#	2a	2dd
=90	=90	=90	=90	=90	=90	=90	=90
2r	2r	2r	2r	4G	1g	1.dd	1b
.	.	.	.	4A	.	.	.
2r	2r	2r	2r	4B	.	.	.
.	.	.	.	4c	.	.	.
2D	2d	2d	2a	2d	2f#	.	2a
=91	=91	=91	=91	=91	=91	=91	=91
1G	1B	1d	1g	2G	2g	1dd	2b
.	.	.	.	2r	2r	.	2r
2G	2d	2B	2g	2G	2g	2gg	2b
=92	=92	=92	=92	=92	=92	=92	=92
1C	1c	1e	1g	1c	1g	1ee	2cc
.	.	.	.	.	.	.	4cc
.	.	.	.	.	.	.	4b
2C	2c	2e	2g	2c	2g	2cc	4g
.	.	.	.	.	.	.	4a
=93	=93	=93	=93	=93	=93	=93	=93
2G	2B	2d	[1.g	1B	1g	1dd	4b
.	.	.	.	.	.	.	4cc
2G	2B	2d	.	.	.	.	2dd
2G	2B	2d	.	2B	2g	2dd	2gg
=94	=94	=94	=94	=94	=94	=94	=94
2C	2G	2e	1.g]	1.c	1.g	1.cc	2ee
1C	2.G	1c	.	.	.	.	1ee
.	4A	.	.	.	.	.	.
=95	=95	=95	=95	=95	=95	=95	=95
1.G	1.B	1.d	1.g	1.G	1.g	1.b	1.dd
==	==	==	==	==	==	==	==
*-	*-	*-	*-	*-	*-	*-	*-
!!!CDT: 1525/^1526/-1594/2/2
!!!OCY: Italia
!!!AGN: Mass (Parody)
!!!AST: renaissance, vocal
!!!ASW: Motet 1575 (Palestrina)
!!!PWK: Masses, Book 8vce
!!!RNB: Cadence finals: C,D
!!!YOR: Le Opere Complete, v. 30, p. 59
!!!YOO: Rome, Italy: Fratelli Scalera
!!!END: 1992//
!!!EED: John Miller
!!!YEC: Copyright 2000, John Miller
!!!YEN: United States of America
!!!YEM: Rights to all derivative electronic formats reserved.
!!!YEM: Refer to licensing agreement for further details.
!!!YEM: This file must be accompanied by the licensing agreement.
!!!YEM: A copy of the licensing agreement may be found at http://www.music-cog.ohio-state.edu/HumdrumDatabases/Palestrina/license.txt
!!!EMD: converted to Humdrum by Bret Aarden
